assets/svg/regular/clone.svg

<svg xmlns="http://www.w3.org/2000/svg" viewBox="0 0 512 512"><!--! Font Awesome Free 6.6.0 by @fontawesome - https://fontawesome.com License - https://fontawesome.com/license/free (Icons: CC BY 4.0, Fonts: SIL OFL 1.1, Code: MIT License) Copyright 2024 Fonticons, Inc. --><path d="M64 464l224 0c8.8 0 16-7.2 16-16l0-64 48 0 0 64c0 35.3-28.7 64-64 64L64 512c-35.3 0-64-28.7-64-64L0 224c0-35.3 28.7-64 64-64l64 0 0 48-64 0c-8.8 0-16 7.2-16 16l0 224c0 8.8 7.2 16 16 16zM224 304l224 0c8.8 0 16-7.2 16-16l0-224c0-8.8-7.2-16-16-16L224 48c-8.8 0-16 7.2-16 16l0 224c0 8.8 7.2 16 16 16zm-64-16l0-224c0-35.3 28.7-64 64-64L448 0c35.3 0 64 28.7 64 64l0 224c0 35.3-28.7 64-64 64l-224 0c-35.3 0-64-28.7-64-64z"/></svg>

<svg xmlns="http://www.w3.org/2000/svg" viewBox="0 0 512 512"><!--! Font Awesome Free 6.5.0 by @fontawesome - https://fontawesome.com License - https://fontawesome.com/license/free (Icons: CC BY 4.0, Fonts: SIL OFL 1.1, Code: MIT License) Copyright 2023 Fonticons, Inc. --><path d="M64 464H288c8.8 0 16-7.2 16-16V384h48v64c0 35.3-28.7 64-64 64H64c-35.3 0-64-28.7-64-64V224c0-35.3 28.7-64 64-64h64v48H64c-8.8 0-16 7.2-16 16V448c0 8.8 7.2 16 16 16zM224 304H448c8.8 0 16-7.2 16-16V64c0-8.8-7.2-16-16-16H224c-8.8 0-16 7.2-16 16V288c0 8.8 7.2 16 16 16zm-64-16V64c0-35.3 28.7-64 64-64H448c35.3 0 64 28.7 64 64V288c0 35.3-28.7 64-64 64H224c-35.3 0-64-28.7-64-64z"/></svg>
